assets/web/icons/notifications-off.svg

<svg width="24" height="24" viewBox="0 0 24 24" fill="none" xmlns="http://www.w3.org/2000/svg">
<path d="M4.91707 2.08293L21.9171 19.0829C22.3076 19.4735 22.3076 20.1066 21.9171 20.4972C21.5265 20.8877 20.8934 20.8877 20.5029 20.4972L19.0058 19.0001H4.41424C3.52333 19.0001 3.07716 17.9229 3.70713 17.293L5.00002 16.0001V10.0001C5.00002 10.0001 5.00002 7.96599 6.0965 6.0908L3.50285 3.49715C3.11233 3.10662 3.11233 2.47346 3.50285 2.08293C3.89338 1.69241 4.52654 1.69241 4.91707 2.08293ZM17.0058 17.0001L7.57867 7.57296C7.3103 8.16195 7.16168 8.75812 7.08218 9.23511C7.0392 9.493 7.01849 9.70354 7.00861 9.84177C7.0037 9.91055 7.00154 9.96039 7.00062 9.98808L7.00002 10.0105V16.8285L6.82845 17.0001H17.0058Z" fill="currentColor"/>
<path d="M17 11.3491V10.0105L16.9994 9.98808C16.9985 9.96039 16.9963 9.91055 16.9914 9.84177C16.9816 9.70354 16.9608 9.493 16.9179 9.23511C16.8303 8.70984 16.659 8.04006 16.3362 7.39449C16.0173 6.75675 15.5704 6.17985 14.9375 5.75791C14.3171 5.34432 13.4001 5.00006 12 5.00006C11.5339 5.00006 11.1213 5.03822 10.7554 5.1044L9.13618 3.4852C9.92908 3.1812 10.874 3.00006 12 3.00006C19 3.00006 19 10.0001 19 10.0001V13.3491L17 11.3491Z" fill="currentColor"/>
<path d="M10 20.0001H14C14 21.1046 13.1046 22.0001 12 22.0001C10.8954 22.0001 10 21.1046 10 20.0001Z" fill="currentColor"/>
</svg>

<svg xmlns="http://www.w3.org/2000/svg" width="24" height="24" fill="currentColor" viewBox="0 0 24 24">
  <path d="m4.917 2.083 17 17a1 1 0 0 1-1.414 1.414L19.006 19H4.414c-.89 0-1.337-1.077-.707-1.707L5 16v-6s0-2.034 1.096-3.91L3.503 3.498a1 1 0 0 1 1.414-1.414ZM17.006 17 7.579 7.573a6.731 6.731 0 0 0-.497 1.662 6.596 6.596 0 0 0-.081.753L7 10.01v6.818L6.828 17h10.178ZM17 11.349V9.988l-.009-.146a6.591 6.591 0 0 0-.073-.607 6.608 6.608 0 0 0-.582-1.84c-.319-.638-.766-1.215-1.398-1.637C14.318 5.344 13.4 5 12 5c-.466 0-.879.038-1.245.104L9.136 3.485C9.93 3.181 10.874 3 12 3c7 0 7 7 7 7v3.349l-2-2Z"/>
  <path d="M10 20h4a2 2 0 1 1-4 0Z"/>
</svg>
